<?xml version="1.0" encoding="UTF-8"?>
<map version="1.10" tiledversion="1.11.2" orientation="orthogonal" renderorder="left-down" width="33" height="21" tilewidth="16" tileheight="16" infinite="0" nextlayerid="17" nextobjectid="1">
 <properties>
  <property name="originX" type="int" value="0"/>
  <property name="originY" type="int" value="14"/>
 </properties>
 <tileset firstgid="1" name="World1" tilewidth="16" tileheight="16" tilecount="4096" columns="64">
  <image source="Tiles/Tilesets/World1.png" width="1024" height="1024"/>
  <tile id="147">
   <animation>
    <frame tileid="147" duration="400"/>
    <frame tileid="150" duration="400"/>
   </animation>
  </tile>
  <tile id="148">
   <animation>
    <frame tileid="148" duration="400"/>
    <frame tileid="151" duration="400"/>
   </animation>
  </tile>
  <tile id="149">
   <animation>
    <frame tileid="149" duration="400"/>
    <frame tileid="152" duration="400"/>
   </animation>
  </tile>
  <tile id="155">
   <animation>
    <frame tileid="155" duration="400"/>
    <frame tileid="156" duration="400"/>
   </animation>
  </tile>
  <tile id="157">
   <animation>
    <frame tileid="157" duration="400"/>
    <frame tileid="158" duration="400"/>
   </animation>
  </tile>
  <tile id="211">
   <animation>
    <frame tileid="211" duration="400"/>
    <frame tileid="214" duration="400"/>
   </animation>
  </tile>
  <tile id="212">
   <animation>
    <frame tileid="212" duration="400"/>
    <frame tileid="215" duration="400"/>
   </animation>
  </tile>
  <tile id="213">
   <animation>
    <frame tileid="213" duration="400"/>
    <frame tileid="216" duration="400"/>
   </animation>
  </tile>
  <tile id="219">
   <animation>
    <frame tileid="283" duration="400"/>
    <frame tileid="284" duration="400"/>
    <frame tileid="285" duration="400"/>
    <frame tileid="286" duration="400"/>
   </animation>
  </tile>
  <tile id="339">
   <animation>
    <frame tileid="339" duration="400"/>
    <frame tileid="342" duration="400"/>
   </animation>
  </tile>
  <tile id="340">
   <animation>
    <frame tileid="340" duration="400"/>
    <frame tileid="343" duration="400"/>
   </animation>
  </tile>
  <tile id="341">
   <animation>
    <frame tileid="341" duration="400"/>
    <frame tileid="344" duration="400"/>
   </animation>
  </tile>
  <tile id="403">
   <animation>
    <frame tileid="403" duration="400"/>
    <frame tileid="406" duration="400"/>
   </animation>
  </tile>
  <tile id="405">
   <animation>
    <frame tileid="405" duration="400"/>
    <frame tileid="408" duration="400"/>
   </animation>
  </tile>
 </tileset>
 <tileset firstgid="4097" name="Paths" tilewidth="16" tileheight="16" tilecount="40" columns="4">
  <image source="Tiles/Tilesets/Paths.png" width="64" height="160"/>
 </tileset>
 <layer id="1" name="Back" width="33" height="21">
  <properties>
   <property name="unity:SortingLayer" value="Back"/>
   <property name="unity:SortingOrder" value="200"/>
  </properties>
  <data encoding="csv">
0,0,0,0,0,0,0,0,0,0,0,0,0,0,0,0,0,0,0,0,0,0,0,0,0,0,0,0,0,0,0,0,0,
0,194,195,195,134,195,195,194,134,134,194,67,67,67,194,194,67,67,194,67,67,194,67,67,194,194,67,67,194,194,67,67,194,
0,194,134,134,134,195,134,134,134,134,134,67,194,194,67,67,194,67,67,67,194,67,194,194,194,67,67,194,67,67,196,67,194,
0,195,134,195,461,461,461,461,194,194,195,194,194,194,67,194,67,131,194,194,259,67,67,259,67,67,67,194,67,67,194,67,67,
0,134,134,134,461,461,461,461,533,194,195,67,67,67,67,67,67,194,194,194,67,67,67,67,67,67,194,194,67,194,194,67,67,
0,194,134,194,461,461,469,461,461,195,194,67,67,194,194,67,131,194,194,194,194,259,1923,66,66,66,1923,194,67,67,194,196,194,
0,195,134,195,196,461,461,461,194,194,134,194,67,194,194,67,194,194,67,67,67,1924,1987,272,273,274,1987,1922,67,67,196,67,196,
0,134,335,335,194,194,461,461,134,195,194,67,67,194,194,194,67,194,131,194,194,1988,1922,194,196,196,1924,1986,194,67,194,194,196,
0,194,335,335,134,134,461,533,134,195,195,134,194,1795,134,0,194,194,67,194,1924,70,70,1987,271,1987,70,70,1922,1923,1923,1923,1924,
0,461,461,533,461,461,143,461,194,194,134,195,194,194,134,195,194,67,198,194,1988,70,70,74,70,70,73,70,1986,1987,1987,1987,1988,
0,197,197,197,197,197,194,194,461,68,195,194,194,134,195,194,194,67,67,67,333,74,72,70,73,70,70,70,70,1986,2051,2051,1167,
0,194,194,194,195,134,195,194,194,68,195,134,195,194,134,195,194,194,67,194,1860,1292,70,70,70,70,70,74,1358,1295,1292,1293,1294,
0,194,195,194,134,194,195,134,134,194,195,195,194,194,259,194,194,259,259,196,1860,1359,1356,1357,1358,1359,1356,1357,1358,1359,1356,1357,1358,
0,134,195,134,134,194,194,134,195,195,194,195,194,196,195,194,67,259,196,67,1924,1167,1164,1165,1166,1167,1164,1165,1166,1167,1164,1165,1166,
0,195,134,194,195,194,134,194,134,195,195,195,195,134,195,194,131,259,196,1924,1988,1231,1228,1229,1230,1231,1228,1229,1230,1231,1228,1229,1230,
0,134,134,195,194,195,134,195,134,195,194,134,195,195,195,194,131,196,1924,1988,1294,1295,1292,1293,1294,1295,1292,1293,1294,1295,1292,1293,1294,
0,196,131,67,194,67,67,194,131,196,67,131,131,67,196,131,67,67,1988,1357,1358,1359,1356,1357,1358,1359,1356,1357,1358,1359,1356,1357,1358,
0,196,131,131,131,194,67,196,196,196,131,67,196,196,259,67,66,66,66,1165,1166,1167,1164,1165,1166,1167,1164,1165,1166,1167,1164,1165,1166,
0,196,67,194,67,194,67,196,67,131,67,67,194,194,194,67,67,67,259,260,1230,1231,1228,1229,1230,1231,1228,1229,1230,1231,1228,1229,1230,
0,196,131,196,196,131,67,194,194,196,196,67,196,67,196,67,259,196,67,260,1294,1295,1292,1293,1294,1295,1292,1293,1294,1295,1292,1293,1294,
0,196,67,196,131,196,196,196,131,196,67,67,196,196,259,67,194,196,194,1924,1358,1359,1356,1357,1358,1359,1356,1357,1358,1359,1356,1357,1358
</data>
 </layer>
 <objectgroup id="6" name="Back Object" locked="1"/>
 <layer id="2" name="Back2" width="33" height="21" locked="1">
  <properties>
   <property name="unity:SortingLayer" value="Back"/>
  </properties>
  <data encoding="csv">
0,0,0,0,0,0,0,0,0,0,0,0,0,0,0,0,0,0,0,0,0,0,0,0,0,0,0,0,0,0,0,0,0,
0,0,0,0,0,0,0,0,0,0,0,0,0,0,0,0,0,0,0,0,0,0,0,0,0,0,0,0,0,0,0,0,0,
0,0,0,0,0,0,1610612880,3221225679,0,0,0,0,0,0,0,0,0,0,0,0,0,0,0,0,0,0,0,0,0,0,0,0,0,
0,0,0,0,0,1063,0,0,3221225937,0,0,0,0,0,0,0,0,0,0,0,0,0,0,0,0,0,0,0,0,0,0,0,0,
0,0,0,0,0,0,0,0,0,1610612943,0,0,0,0,0,0,0,0,0,0,0,0,0,0,0,0,0,0,0,0,0,0,0,
0,0,0,0,0,0,0,0,0,208,0,0,0,0,0,0,0,0,0,0,0,0,0,517,0,3221225988,0,0,0,0,0,0,0,
0,0,0,0,1073742286,0,0,0,1610613201,0,0,0,0,0,0,0,0,0,0,0,0,0,0,0,0,0,0,0,0,0,0,0,0,
0,2684354959,0,0,3221225873,2684355085,0,0,0,0,0,0,0,0,0,0,0,0,0,0,0,0,0,0,0,0,0,0,0,0,0,0,0,
0,464,0,0,262,462,0,0,0,0,0,0,0,0,0,0,0,0,0,0,0,2052,2050,0,0,0,2052,2050,0,0,0,0,0,
0,0,0,0,0,0,0,3221225872,2147484110,453,0,680,0,0,1064,0,0,0,0,0,0,0,0,0,0,0,0,0,0,1987,0,0,0,
0,3221225934,0,0,0,0,0,1610613198,1610613135,0,452,1063,0,0,1064,0,0,0,0,0,1796,0,0,0,0,0,0,0,2050,2051,0,0,148,
0,0,0,0,0,0,0,0,454,0,514,0,398,399,400,0,0,0,0,0,0,342,0,0,0,0,0,0,340,149,149,149,404,
0,0,0,0,0,0,0,0,0,0,0,0,0,0,0,0,0,0,0,0,0,406,341,341,341,341,341,341,404,0,0,0,0,
0,0,0,0,0,0,0,0,0,0,0,0,0,0,0,0,0,0,0,0,0,0,0,0,0,0,0,0,0,0,0,0,0,
0,0,0,0,0,0,0,0,0,0,0,0,0,0,0,0,0,0,0,0,0,0,0,0,0,0,0,0,0,0,0,0,0,
0,0,0,0,0,0,0,0,0,0,0,0,0,0,0,0,0,0,0,0,148,0,0,0,0,0,0,0,0,0,0,0,0,
0,0,0,0,0,0,0,0,0,0,0,0,0,0,0,0,0,0,261,148,404,0,0,0,0,0,0,0,0,0,0,0,0,
0,0,0,0,0,0,0,0,0,0,0,0,0,0,0,0,0,0,0,261,0,0,0,0,0,0,0,0,0,0,0,0,0,
0,0,0,0,0,0,0,0,0,0,0,0,0,0,0,0,0,0,0,0,0,0,0,0,0,0,0,0,0,0,0,0,0,
0,0,0,0,0,0,0,0,0,0,0,0,0,0,0,0,0,0,0,0,0,0,0,0,0,0,0,0,0,0,0,0,0,
0,0,0,0,0,0,0,0,0,0,0,0,0,0,0,0,0,0,0,0,0,0,0,0,0,0,0,0,0,0,0,0,0
</data>
 </layer>
 <objectgroup id="7" name="Back2 Object" locked="1"/>
 <layer id="3" name="Buildings" width="33" height="21">
  <properties>
   <property name="Passable" value="F"/>
   <property name="unity:SortingLayer" value="Buildings"/>
   <property name="unity:SortingOrder" value="400"/>
  </properties>
  <data encoding="csv">
13,13,13,13,13,13,13,13,13,13,13,13,13,13,13,13,13,13,13,13,13,13,13,13,13,13,13,13,13,13,13,13,13,
13,0,0,0,0,617,0,0,0,0,0,0,0,0,0,0,0,0,0,0,0,0,0,0,0,0,0,0,0,0,0,0,0,
13,1493,1494,0,680,681,0,0,0,0,0,0,0,0,0,0,0,0,0,0,0,0,0,0,0,0,0,0,0,0,0,0,0,
13,1237,1238,0,1245,0,1126,1127,0,0,0,0,0,0,0,0,0,0,0,0,0,0,0,0,0,0,0,0,0,0,0,0,0,
13,1237,1238,1239,1309,0,0,0,0,0,0,0,0,0,0,0,0,0,0,0,0,0,0,0,0,0,0,0,0,0,0,0,0,
13,1301,1302,1303,1426,0,0,0,0,0,0,0,0,0,0,0,0,0,0,0,0,0,0,0,0,0,0,0,0,0,0,0,0,
13,1365,1710,1378,1426,0,0,0,0,0,0,0,0,0,0,0,0,0,0,0,0,264,1987,0,0,0,1987,263,0,0,0,0,0,
13,0,0,0,0,0,0,0,0,0,0,0,0,0,617,0,0,0,0,0,0,1988,1922,0,0,0,1924,1986,0,0,0,0,0,
13,0,0,0,0,0,0,0,0,0,0,0,0,0,681,680,0,0,0,0,264,2052,2050,2051,0,2051,2052,2050,263,0,0,0,1924,
13,0,0,0,0,0,0,0,0,0,0,0,1826,1826,0,0,0,0,0,0,1988,0,0,0,0,0,0,0,1986,1987,1987,1987,1988,
13,0,0,0,0,0,0,0,0,0,0,1889,1701,2147485478,1891,0,0,0,0,0,1796,0,0,0,0,0,0,0,2050,2051,2051,2051,0,
13,0,0,0,0,0,0,0,0,0,0,0,0,0,0,0,0,0,0,0,260,342,0,0,0,0,0,0,340,149,0,0,0,
13,0,0,0,0,0,0,2470,2471,2471,2472,0,0,0,0,0,0,0,0,0,260,406,341,341,341,341,341,341,0,0,0,0,0,
13,0,0,0,0,0,0,0,0,0,0,0,0,0,0,0,0,0,0,0,264,0,0,0,0,0,0,0,0,0,0,0,0,
13,0,0,0,0,0,0,0,0,0,0,0,0,0,0,0,0,0,0,264,0,0,0,0,0,0,0,0,0,0,0,0,0,
13,0,0,0,0,0,0,0,0,0,0,0,0,0,0,0,0,0,264,0,0,0,0,0,0,0,0,0,0,0,0,0,0,
13,0,0,0,0,0,0,0,0,0,0,0,0,0,0,0,0,0,1796,0,0,0,0,0,0,0,0,0,0,0,0,0,0,
13,0,0,0,0,0,0,0,0,0,0,0,0,0,0,0,0,0,0,1796,0,0,0,0,0,0,0,0,0,0,0,0,0,
13,0,0,0,0,0,0,0,0,0,0,0,0,0,0,0,0,0,0,1860,0,0,0,0,0,0,0,0,0,0,0,0,0,
13,0,0,0,0,0,0,0,0,0,0,0,0,0,0,0,0,0,0,1860,0,0,0,0,0,0,0,0,0,0,0,0,0,
13,0,0,0,0,0,0,0,0,0,0,0,0,0,0,0,0,0,0,264,0,0,0,0,0,0,0,0,0,0,0,0,0
</data>
 </layer>
 <objectgroup id="8" name="Buildings Object" locked="1"/>
 <layer id="4" name="Path" width="33" height="21" locked="1">
  <properties>
   <property name="unity:SortingLayer" value="Path"/>
   <property name="unity:SortingOrder" value="500"/>
  </properties>
  <data encoding="csv">
0,0,0,0,0,0,0,0,0,0,0,0,0,0,0,0,0,0,0,0,0,0,0,0,0,0,0,0,0,0,0,0,0,
0,0,0,0,0,0,0,0,0,0,0,0,0,0,0,0,0,0,0,0,0,0,0,0,0,0,0,0,0,0,0,0,0,
0,0,0,0,0,0,0,0,0,0,0,0,0,0,0,0,0,0,0,0,0,0,0,0,0,0,0,0,0,0,0,0,0,
0,0,0,0,2147484777,2147484776,0,0,0,0,0,0,0,0,0,0,0,0,0,0,0,0,0,0,0,0,0,0,0,0,0,0,0,
0,0,0,0,2147484841,2147484840,0,0,0,0,0,0,0,0,0,0,0,0,0,0,0,0,0,0,0,0,0,0,0,0,0,0,0,
0,0,0,0,0,0,0,0,0,0,0,0,0,0,0,0,0,0,0,0,0,0,0,0,0,0,0,0,0,0,0,0,0,
0,0,0,0,0,0,0,0,0,0,0,0,0,0,0,0,0,0,0,0,0,0,0,0,0,0,0,0,0,0,0,0,0,
0,0,0,0,0,0,0,0,0,0,0,0,0,0,0,0,0,0,0,0,0,0,0,0,0,0,0,0,0,0,0,0,0,
0,398,0,0,2147484049,0,0,0,0,0,0,0,0,0,0,0,0,0,0,0,0,2684354638,3221225550,0,0,0,2684354638,3221225550,0,0,0,0,0,
0,0,0,0,0,0,0,0,1073742224,0,0,0,0,0,0,0,0,0,0,0,0,2147483726,0,0,0,0,0,3758096462,0,0,0,0,0,
0,0,0,0,0,0,0,398,2684354959,2684354897,0,1268,1269,0,0,0,0,0,0,0,0,0,0,0,0,0,0,0,0,0,0,0,0,
0,0,0,0,0,0,0,0,398,1610613134,0,1332,1333,0,0,0,0,0,0,0,0,0,0,0,0,0,0,0,0,0,0,0,0,
0,0,0,0,0,0,0,0,817,882,0,0,0,0,0,0,0,0,0,0,0,0,0,0,0,0,0,0,0,0,0,0,0,
0,0,0,0,0,0,0,0,0,0,0,0,0,0,0,0,0,0,0,0,0,0,0,0,0,0,0,0,0,0,0,0,0,
0,0,0,0,0,0,0,0,0,0,0,0,0,0,0,0,0,0,0,0,0,0,0,0,0,0,0,0,0,0,0,0,0,
0,0,0,0,0,0,0,0,0,0,0,0,0,0,0,0,0,0,0,0,0,0,0,0,0,0,0,0,0,0,0,0,0,
0,0,0,0,0,0,0,0,0,0,0,0,0,0,0,0,0,0,0,0,0,0,0,0,0,0,0,0,0,0,0,0,0,
0,0,0,0,0,0,0,0,0,0,0,0,0,0,0,0,0,0,0,0,0,0,0,0,0,0,0,0,0,0,0,0,0,
0,0,0,0,0,0,0,0,0,0,0,0,0,0,0,0,0,0,0,0,0,0,0,0,0,0,0,0,0,0,0,0,0,
0,0,0,0,0,0,0,0,0,0,0,0,0,0,0,0,0,0,0,0,0,0,0,0,0,0,0,0,0,0,0,0,0,
0,0,0,0,0,0,0,0,0,0,0,0,0,0,0,0,0,0,0,0,0,0,0,0,0,0,0,0,0,0,0,0,0
</data>
 </layer>
 <objectgroup id="9" name="Path Object" locked="1"/>
 <layer id="5" name="Front" width="33" height="21" locked="1">
  <properties>
   <property name="unity:SortingLayer" value="Front"/>
   <property name="unity:SortingOrder" value="700"/>
  </properties>
  <data encoding="csv">
0,0,0,0,0,0,0,0,0,0,0,0,0,0,0,0,0,0,0,0,0,0,0,0,0,0,0,0,0,0,0,0,0,
0,0,1121,1122,1123,0,0,0,0,0,0,0,0,0,0,0,0,0,0,0,0,0,0,0,0,0,0,0,0,0,0,0,0,
0,0,1313,1314,1315,0,0,0,0,0,0,0,0,0,0,0,0,0,0,0,0,0,0,0,0,0,0,0,0,0,0,0,0,
0,0,1377,1378,1379,0,0,0,0,0,0,0,0,0,0,0,0,0,0,0,0,0,0,0,0,0,0,0,0,0,0,0,0,
0,0,0,0,0,0,0,0,0,0,0,0,0,0,0,0,0,0,0,0,0,0,0,0,0,0,0,0,0,0,0,0,0,
0,0,0,0,0,0,0,0,0,0,0,0,0,0,0,0,0,0,0,0,0,0,0,0,0,0,0,0,0,0,0,0,0,
0,0,0,0,0,0,0,0,0,0,0,0,0,0,0,0,0,0,0,0,0,0,0,0,0,0,0,0,0,0,0,0,0,
0,0,0,0,0,0,0,0,0,0,0,0,0,0,0,0,0,0,0,0,0,0,0,0,0,0,0,0,0,0,0,0,0,
0,0,0,0,0,0,0,0,0,0,0,1633,1634,1634,1635,0,0,0,0,0,0,0,0,0,0,0,0,0,0,0,0,0,0,
0,0,0,0,0,0,0,0,0,0,0,1825,1826,1826,1827,0,0,0,0,0,0,0,0,0,0,0,0,0,0,0,0,0,0,
0,0,0,0,0,0,0,0,0,0,0,0,0,0,0,0,0,0,0,0,0,0,0,0,0,0,0,0,0,0,0,0,0,
0,0,0,0,0,0,0,2726,2727,2727,2728,0,0,0,0,0,0,0,0,0,0,0,0,0,0,0,0,0,0,0,0,0,0,
0,0,0,0,0,0,0,0,0,0,0,0,0,0,0,0,0,0,0,0,0,0,0,0,0,0,0,0,0,0,0,0,0,
0,0,0,0,0,0,0,0,0,0,0,0,0,0,0,0,0,0,0,0,0,0,0,0,0,0,0,0,0,0,0,0,0,
0,0,0,0,0,0,0,0,0,0,0,0,0,0,0,0,0,0,0,0,0,0,0,0,0,0,0,0,0,0,0,0,0,
0,0,0,0,0,0,0,0,0,0,0,0,0,0,0,0,0,0,0,0,0,0,0,0,0,0,0,0,0,0,0,0,0,
0,0,0,0,0,0,0,0,0,0,0,0,0,0,0,0,0,0,0,0,0,0,0,0,0,0,0,0,0,0,0,0,0,
0,0,0,0,0,0,0,0,0,0,0,0,0,0,0,0,0,0,0,0,0,0,0,0,0,0,0,0,0,0,0,0,0,
0,0,0,0,0,0,0,0,0,0,0,0,0,0,0,0,0,0,0,0,0,0,0,0,0,0,0,0,0,0,0,0,0,
0,0,0,0,0,0,0,0,0,0,0,0,0,0,0,0,0,0,0,0,0,0,0,0,0,0,0,0,0,0,0,0,0,
0,0,0,0,0,0,0,0,0,0,0,0,0,0,0,0,0,0,0,0,0,0,0,0,0,0,0,0,0,0,0,0,0
</data>
 </layer>
 <objectgroup id="10" name="Front Object" locked="1"/>
 <layer id="12" name="Always Front" width="33" height="21" locked="1">
  <properties>
   <property name="unity:SortingLayer" value="AlwaysFront"/>
   <property name="unity:SortingOrder" value="800"/>
  </properties>
  <data encoding="csv">
0,0,0,0,0,0,0,0,0,0,0,0,0,0,0,0,0,0,0,0,0,0,0,0,0,0,0,0,0,0,0,0,0,
0,0,0,0,0,0,0,0,0,0,0,0,0,0,0,0,0,0,0,0,0,0,0,0,0,0,0,0,0,0,0,0,0,
0,0,0,0,0,0,0,0,0,0,0,0,0,0,0,0,0,0,0,0,0,0,0,0,0,0,0,0,0,0,0,0,0,
0,0,0,0,0,0,0,0,0,0,0,0,0,0,0,0,0,0,0,0,0,0,0,0,0,0,0,0,0,0,0,0,0,
0,0,0,0,0,0,0,0,0,0,0,0,0,0,0,0,0,0,0,0,0,0,0,0,0,0,0,0,0,0,0,0,0,
0,0,0,0,0,0,0,0,0,0,0,0,0,0,0,0,0,0,0,0,0,0,0,0,0,0,0,0,0,0,0,0,0,
0,0,0,0,0,0,0,0,0,0,0,0,0,0,0,0,0,0,0,0,0,0,0,0,0,0,0,0,0,0,0,0,0,
0,0,0,0,0,0,0,0,0,0,0,0,0,0,0,0,0,0,0,0,0,0,0,0,0,0,0,0,0,0,0,0,0,
0,0,0,0,0,0,0,0,0,0,0,0,0,0,0,0,0,0,0,0,0,0,0,0,0,0,0,0,0,0,0,0,0,
0,0,0,0,0,0,0,0,0,0,0,0,0,0,0,0,0,0,0,0,0,0,0,0,0,0,0,0,0,0,0,0,0,
0,0,0,0,0,0,0,0,0,0,0,0,0,0,0,0,0,0,0,0,0,0,0,0,0,0,0,0,0,0,0,0,0,
0,0,0,0,0,0,0,0,0,0,0,0,0,0,0,0,0,0,0,0,0,0,0,0,0,0,0,0,0,0,0,0,0,
0,0,0,0,0,0,0,0,0,0,0,0,0,0,0,0,0,0,0,0,0,0,0,0,0,0,0,0,0,0,0,0,0,
0,0,0,0,0,0,0,0,0,0,0,0,0,0,0,0,0,0,0,0,0,0,0,0,0,0,0,0,0,0,0,0,0,
0,0,0,0,0,0,0,0,0,0,0,0,0,0,0,0,0,0,0,0,0,0,0,0,0,0,0,0,0,0,0,0,0,
0,0,0,0,0,0,0,0,0,0,0,0,0,0,0,0,0,0,0,0,0,0,0,0,0,0,0,0,0,0,0,0,0,
0,0,0,0,0,0,0,0,0,0,0,0,0,0,0,0,0,0,0,0,0,0,0,0,0,0,0,0,0,0,0,0,0,
0,0,0,0,0,0,0,0,0,0,0,0,0,0,0,0,0,0,0,0,0,0,0,0,0,0,0,0,0,0,0,0,0,
0,0,0,0,0,0,0,0,0,0,0,0,0,0,0,0,0,0,0,0,0,0,0,0,0,0,0,0,0,0,0,0,0,
0,0,0,0,0,0,0,0,0,0,0,0,0,0,0,0,0,0,0,0,0,0,0,0,0,0,0,0,0,0,0,0,0,
0,0,0,0,0,0,0,0,0,0,0,0,0,0,0,0,0,0,0,0,0,0,0,0,0,0,0,0,0,0,0,0,0
</data>
 </layer>
 <objectgroup id="11" name="Always Front Object" locked="1"/>
 <layer id="16" name="Always Front2" width="33" height="21" locked="1">
  <properties>
   <property name="unity:SortingLayer" value="AlwaysFront"/>
  </properties>
  <data encoding="csv">
0,0,0,0,0,0,0,0,0,0,0,0,0,0,0,0,0,0,0,0,0,0,0,0,0,0,0,0,0,0,0,0,0,
0,0,0,0,0,0,0,0,0,0,0,0,0,0,0,0,0,0,0,0,0,0,0,0,0,0,0,0,0,0,0,0,0,
0,0,0,0,0,0,0,0,0,0,0,0,0,0,0,0,0,0,0,0,0,0,0,0,0,0,0,0,0,0,0,0,0,
0,0,0,0,0,0,0,0,0,0,0,0,0,0,0,0,0,0,0,0,0,0,0,0,0,0,0,0,0,0,0,0,0,
0,0,0,0,0,0,0,0,0,0,0,0,0,0,0,0,0,0,0,0,0,0,0,0,0,0,0,0,0,0,0,0,0,
0,0,0,0,0,0,0,0,0,0,0,0,0,0,0,0,0,0,0,0,0,0,0,0,0,0,0,0,0,0,0,0,0,
0,0,0,0,0,0,0,0,0,0,0,0,0,0,0,0,0,0,0,0,0,0,0,0,0,0,0,0,0,0,0,0,0,
0,0,0,0,0,0,0,0,0,0,0,0,0,0,0,0,0,0,0,0,0,0,0,0,0,0,0,0,0,0,0,0,0,
0,0,0,0,0,0,0,0,0,0,0,0,0,0,0,0,0,0,0,0,0,0,0,0,0,0,0,0,0,0,0,0,0,
0,0,0,0,0,0,0,0,0,0,0,0,0,0,0,0,0,0,0,0,0,0,0,0,0,0,0,0,0,0,0,0,0,
0,0,0,0,0,0,0,0,0,0,0,0,0,0,0,0,0,0,0,0,0,0,0,0,0,0,0,0,0,0,0,0,0,
0,0,0,0,0,0,0,0,0,0,0,0,0,0,0,0,0,0,0,0,0,0,0,0,0,0,0,0,0,0,0,0,0,
0,0,0,0,0,0,0,0,0,0,0,0,0,0,0,0,0,0,0,0,0,0,0,0,0,0,0,0,0,0,0,0,0,
0,0,0,0,0,0,0,0,0,0,0,0,0,0,0,0,0,0,0,0,0,0,0,0,0,0,0,0,0,0,0,0,0,
0,0,0,0,0,0,0,0,0,0,0,0,0,0,0,0,0,0,0,0,0,0,0,0,0,0,0,0,0,0,0,0,0,
0,0,0,0,0,0,0,0,0,0,0,0,0,0,0,0,0,0,0,0,0,0,0,0,0,0,0,0,0,0,0,0,0,
0,0,0,0,0,0,0,0,0,0,0,0,0,0,0,0,0,0,0,0,0,0,0,0,0,0,0,0,0,0,0,0,0,
0,0,0,0,0,0,0,0,0,0,0,0,0,0,0,0,0,0,0,0,0,0,0,0,0,0,0,0,0,0,0,0,0,
0,0,0,0,0,0,0,0,0,0,0,0,0,0,0,0,0,0,0,0,0,0,0,0,0,0,0,0,0,0,0,0,0,
0,0,0,0,0,0,0,0,0,0,0,0,0,0,0,0,0,0,0,0,0,0,0,0,0,0,0,0,0,0,0,0,0,
0,0,0,0,0,0,0,0,0,0,0,0,0,0,0,0,0,0,0,0,0,0,0,0,0,0,0,0,0,0,0,0,0
</data>
 </layer>
 <objectgroup id="15" name="Always Front2 Object" locked="1"/>
</map>
