<?xml version="1.0" encoding="UTF-8"?>
<map version="1.10" tiledversion="1.11.2" orientation="orthogonal" renderorder="left-down" width="31" height="20" tilewidth="16" tileheight="16" infinite="0" parallaxoriginx="0" parallaxoriginy="2" nextlayerid="19" nextobjectid="63">
 <properties>
  <property name="originX" type="int" value="0"/>
  <property name="originY" type="int" value="19"/>
 </properties>
 <tileset firstgid="1" name="Smoke1" tilewidth="15" tileheight="37" tilecount="30" columns="30">
  <image source="Tiles/VFX/Smoke/Smoke1.png" width="450" height="37"/>
  <tile id="0">
   <animation>
    <frame tileid="0" duration="100"/>
    <frame tileid="1" duration="100"/>
    <frame tileid="2" duration="100"/>
    <frame tileid="3" duration="100"/>
    <frame tileid="4" duration="100"/>
    <frame tileid="5" duration="100"/>
    <frame tileid="6" duration="100"/>
    <frame tileid="7" duration="100"/>
    <frame tileid="8" duration="100"/>
    <frame tileid="9" duration="100"/>
    <frame tileid="10" duration="100"/>
    <frame tileid="11" duration="100"/>
    <frame tileid="12" duration="100"/>
    <frame tileid="13" duration="100"/>
    <frame tileid="14" duration="100"/>
    <frame tileid="15" duration="100"/>
    <frame tileid="16" duration="100"/>
    <frame tileid="17" duration="100"/>
    <frame tileid="18" duration="100"/>
    <frame tileid="19" duration="100"/>
    <frame tileid="20" duration="100"/>
    <frame tileid="21" duration="100"/>
    <frame tileid="22" duration="100"/>
    <frame tileid="23" duration="100"/>
    <frame tileid="24" duration="100"/>
    <frame tileid="25" duration="100"/>
    <frame tileid="26" duration="100"/>
    <frame tileid="27" duration="100"/>
    <frame tileid="28" duration="100"/>
    <frame tileid="29" duration="100"/>
   </animation>
  </tile>
 </tileset>
 <tileset firstgid="31" name="Smoke2" tilewidth="10" tileheight="30" tilecount="30" columns="30">
  <image source="Tiles/VFX/Smoke/Smoke2.png" width="300" height="30"/>
  <tile id="0">
   <animation>
    <frame tileid="0" duration="100"/>
    <frame tileid="1" duration="100"/>
    <frame tileid="2" duration="100"/>
    <frame tileid="3" duration="100"/>
    <frame tileid="4" duration="100"/>
    <frame tileid="5" duration="100"/>
    <frame tileid="6" duration="100"/>
    <frame tileid="7" duration="100"/>
    <frame tileid="8" duration="100"/>
    <frame tileid="9" duration="100"/>
    <frame tileid="10" duration="100"/>
    <frame tileid="11" duration="100"/>
    <frame tileid="12" duration="100"/>
    <frame tileid="13" duration="100"/>
    <frame tileid="14" duration="100"/>
    <frame tileid="15" duration="100"/>
    <frame tileid="16" duration="100"/>
    <frame tileid="17" duration="100"/>
    <frame tileid="18" duration="100"/>
    <frame tileid="19" duration="100"/>
    <frame tileid="20" duration="100"/>
    <frame tileid="21" duration="100"/>
    <frame tileid="22" duration="100"/>
    <frame tileid="23" duration="100"/>
    <frame tileid="24" duration="100"/>
    <frame tileid="25" duration="100"/>
    <frame tileid="26" duration="100"/>
    <frame tileid="27" duration="100"/>
    <frame tileid="28" duration="100"/>
    <frame tileid="29" duration="100"/>
   </animation>
  </tile>
 </tileset>
 <tileset firstgid="61" name="Smoke3" tilewidth="18" tileheight="21" tilecount="30" columns="30">
  <image source="Tiles/VFX/Smoke/Smoke3.png" width="540" height="21"/>
  <tile id="0">
   <animation>
    <frame tileid="0" duration="100"/>
    <frame tileid="1" duration="100"/>
    <frame tileid="2" duration="100"/>
    <frame tileid="3" duration="100"/>
    <frame tileid="4" duration="100"/>
    <frame tileid="5" duration="100"/>
    <frame tileid="6" duration="100"/>
    <frame tileid="7" duration="100"/>
    <frame tileid="8" duration="100"/>
    <frame tileid="9" duration="100"/>
    <frame tileid="10" duration="100"/>
    <frame tileid="11" duration="100"/>
    <frame tileid="12" duration="100"/>
    <frame tileid="13" duration="100"/>
    <frame tileid="14" duration="100"/>
    <frame tileid="15" duration="100"/>
    <frame tileid="16" duration="100"/>
    <frame tileid="17" duration="100"/>
    <frame tileid="18" duration="100"/>
    <frame tileid="19" duration="100"/>
    <frame tileid="20" duration="100"/>
    <frame tileid="21" duration="100"/>
    <frame tileid="22" duration="100"/>
    <frame tileid="23" duration="100"/>
    <frame tileid="24" duration="100"/>
    <frame tileid="25" duration="100"/>
    <frame tileid="26" duration="100"/>
    <frame tileid="27" duration="100"/>
    <frame tileid="28" duration="100"/>
    <frame tileid="29" duration="100"/>
   </animation>
  </tile>
 </tileset>
 <tileset firstgid="91" name="Smoke4" tilewidth="20" tileheight="32" tilecount="30" columns="30">
  <image source="Tiles/VFX/Smoke/Smoke4.png" width="600" height="32"/>
  <tile id="0">
   <animation>
    <frame tileid="0" duration="100"/>
    <frame tileid="1" duration="100"/>
    <frame tileid="2" duration="100"/>
    <frame tileid="3" duration="100"/>
    <frame tileid="4" duration="100"/>
    <frame tileid="5" duration="100"/>
    <frame tileid="6" duration="100"/>
    <frame tileid="7" duration="100"/>
    <frame tileid="8" duration="100"/>
    <frame tileid="9" duration="100"/>
    <frame tileid="10" duration="100"/>
    <frame tileid="11" duration="100"/>
    <frame tileid="12" duration="100"/>
    <frame tileid="13" duration="100"/>
    <frame tileid="14" duration="100"/>
    <frame tileid="15" duration="100"/>
    <frame tileid="16" duration="100"/>
    <frame tileid="17" duration="100"/>
    <frame tileid="18" duration="100"/>
    <frame tileid="19" duration="100"/>
    <frame tileid="20" duration="100"/>
    <frame tileid="21" duration="100"/>
    <frame tileid="22" duration="100"/>
    <frame tileid="23" duration="100"/>
    <frame tileid="24" duration="100"/>
    <frame tileid="25" duration="100"/>
    <frame tileid="26" duration="100"/>
    <frame tileid="27" duration="100"/>
    <frame tileid="28" duration="100"/>
    <frame tileid="29" duration="100"/>
   </animation>
  </tile>
 </tileset>
 <tileset firstgid="121" name="Smoke5" tilewidth="24" tileheight="19" tilecount="30" columns="30">
  <image source="Tiles/VFX/Smoke/Smoke5.png" width="720" height="19"/>
  <tile id="0">
   <animation>
    <frame tileid="0" duration="100"/>
    <frame tileid="1" duration="100"/>
    <frame tileid="2" duration="100"/>
    <frame tileid="3" duration="100"/>
    <frame tileid="4" duration="100"/>
    <frame tileid="5" duration="100"/>
    <frame tileid="6" duration="100"/>
    <frame tileid="7" duration="100"/>
    <frame tileid="8" duration="100"/>
    <frame tileid="9" duration="100"/>
    <frame tileid="10" duration="100"/>
    <frame tileid="11" duration="100"/>
    <frame tileid="12" duration="100"/>
    <frame tileid="13" duration="100"/>
    <frame tileid="14" duration="100"/>
    <frame tileid="15" duration="100"/>
    <frame tileid="16" duration="100"/>
    <frame tileid="17" duration="100"/>
    <frame tileid="18" duration="100"/>
    <frame tileid="19" duration="100"/>
    <frame tileid="20" duration="100"/>
    <frame tileid="21" duration="100"/>
    <frame tileid="22" duration="100"/>
    <frame tileid="23" duration="100"/>
    <frame tileid="24" duration="100"/>
    <frame tileid="25" duration="100"/>
    <frame tileid="26" duration="100"/>
    <frame tileid="27" duration="100"/>
    <frame tileid="28" duration="100"/>
    <frame tileid="29" duration="100"/>
   </animation>
  </tile>
 </tileset>
 <tileset firstgid="151" name="World1" tilewidth="16" tileheight="16" tilecount="4096" columns="64">
  <image source="Tiles/Tilesets/World1.png" width="1024" height="1024"/>
  <tile id="65">
   <properties>
    <property name="Buildable" value="T"/>
   </properties>
  </tile>
  <tile id="66">
   <properties>
    <property name="Buildable" value="T"/>
   </properties>
  </tile>
  <tile id="67">
   <properties>
    <property name="Diggable" value="T"/>
   </properties>
  </tile>
  <tile id="68">
   <properties>
    <property name="Passable" value="F"/>
    <property name="Water" type="bool" value="true"/>
   </properties>
  </tile>
  <tile id="91">
   <animation>
    <frame tileid="91" duration="300"/>
    <frame tileid="92" duration="300"/>
    <frame tileid="93" duration="300"/>
    <frame tileid="94" duration="300"/>
   </animation>
  </tile>
  <tile id="128">
   <properties>
    <property name="Buildable" type="bool" value="true"/>
   </properties>
  </tile>
  <tile id="129">
   <properties>
    <property name="Buildable" value="T"/>
   </properties>
  </tile>
  <tile id="130">
   <properties>
    <property name="Buildable" value="T"/>
   </properties>
  </tile>
  <tile id="131">
   <properties>
    <property name="Buildable" value="T"/>
   </properties>
  </tile>
  <tile id="132">
   <properties>
    <property name="Buildable" value="T"/>
   </properties>
  </tile>
  <tile id="133">
   <properties>
    <property name="Buildable" value="T"/>
   </properties>
  </tile>
  <tile id="134">
   <properties>
    <property name="Buildable" value="T"/>
   </properties>
  </tile>
  <tile id="147">
   <animation>
    <frame tileid="147" duration="400"/>
    <frame tileid="150" duration="400"/>
   </animation>
  </tile>
  <tile id="148">
   <animation>
    <frame tileid="148" duration="400"/>
    <frame tileid="151" duration="400"/>
   </animation>
  </tile>
  <tile id="149">
   <animation>
    <frame tileid="149" duration="400"/>
    <frame tileid="152" duration="400"/>
   </animation>
  </tile>
  <tile id="155">
   <animation>
    <frame tileid="155" duration="300"/>
    <frame tileid="156" duration="300"/>
   </animation>
  </tile>
  <tile id="157">
   <animation>
    <frame tileid="157" duration="300"/>
    <frame tileid="158" duration="300"/>
   </animation>
  </tile>
  <tile id="192">
   <properties>
    <property name="Buildable" value="T"/>
   </properties>
  </tile>
  <tile id="193">
   <properties>
    <property name="Buildable" value="T"/>
   </properties>
  </tile>
  <tile id="194">
   <properties>
    <property name="Buildable" value="T"/>
   </properties>
  </tile>
  <tile id="195">
   <properties>
    <property name="Buildable" value="T"/>
   </properties>
  </tile>
  <tile id="196">
   <properties>
    <property name="Buildable" value="T"/>
   </properties>
  </tile>
  <tile id="197">
   <properties>
    <property name="Buildable" value="T"/>
   </properties>
  </tile>
  <tile id="198">
   <properties>
    <property name="Buildable" value="T"/>
   </properties>
  </tile>
  <tile id="199">
   <properties>
    <property name="Buildable" value="T"/>
   </properties>
  </tile>
  <tile id="211">
   <animation>
    <frame tileid="211" duration="400"/>
    <frame tileid="214" duration="400"/>
   </animation>
  </tile>
  <tile id="213">
   <animation>
    <frame tileid="213" duration="400"/>
    <frame tileid="216" duration="400"/>
   </animation>
  </tile>
  <tile id="219">
   <animation>
    <frame tileid="219" duration="300"/>
    <frame tileid="220" duration="300"/>
   </animation>
  </tile>
  <tile id="221">
   <animation>
    <frame tileid="221" duration="300"/>
    <frame tileid="222" duration="300"/>
   </animation>
  </tile>
  <tile id="257">
   <properties>
    <property name="Buildable" value="T"/>
   </properties>
  </tile>
  <tile id="258">
   <properties>
    <property name="Buildable" value="T"/>
   </properties>
  </tile>
  <tile id="259">
   <properties>
    <property name="Buildable" value="T"/>
   </properties>
  </tile>
  <tile id="275">
   <animation>
    <frame tileid="275" duration="400"/>
    <frame tileid="278" duration="400"/>
   </animation>
  </tile>
  <tile id="276">
   <animation>
    <frame tileid="276" duration="400"/>
    <frame tileid="279" duration="400"/>
   </animation>
  </tile>
  <tile id="277">
   <animation>
    <frame tileid="277" duration="400"/>
    <frame tileid="280" duration="400"/>
   </animation>
  </tile>
  <tile id="283">
   <animation>
    <frame tileid="283" duration="300"/>
    <frame tileid="284" duration="300"/>
    <frame tileid="285" duration="300"/>
    <frame tileid="286" duration="300"/>
   </animation>
  </tile>
  <tile id="326">
   <properties>
    <property name="Buildable" type="bool" value="true"/>
   </properties>
  </tile>
  <tile id="327">
   <properties>
    <property name="Buildable" type="bool" value="true"/>
   </properties>
  </tile>
  <tile id="328">
   <properties>
    <property name="Buildable" type="bool" value="true"/>
   </properties>
  </tile>
  <tile id="329">
   <properties>
    <property name="Buildable" type="bool" value="true"/>
   </properties>
  </tile>
  <tile id="334">
   <properties>
    <property name="Buildable" type="bool" value="true"/>
   </properties>
  </tile>
  <tile id="449">
   <properties>
    <property name="Diggable" value="T"/>
   </properties>
  </tile>
  <tile id="457">
   <properties>
    <property name="Diggable" value="T"/>
   </properties>
  </tile>
  <tile id="458">
   <properties>
    <property name="Diggable" value="T"/>
   </properties>
  </tile>
  <tile id="459">
   <properties>
    <property name="Diggable" value="T"/>
   </properties>
  </tile>
  <tile id="470">
   <properties>
    <property name="Passable" value="F"/>
    <property name="Water" type="bool" value="true"/>
   </properties>
  </tile>
  <tile id="473">
   <properties>
    <property name="Buildable" type="bool" value="true"/>
   </properties>
  </tile>
  <tile id="475">
   <properties>
    <property name="Buildable" type="bool" value="true"/>
   </properties>
  </tile>
  <tile id="476">
   <properties>
    <property name="Buildable" type="bool" value="true"/>
   </properties>
  </tile>
  <tile id="477">
   <properties>
    <property name="Buildable" type="bool" value="true"/>
   </properties>
  </tile>
  <tile id="478">
   <properties>
    <property name="Passable" value="F"/>
    <property name="Water" type="bool" value="true"/>
   </properties>
  </tile>
  <tile id="479">
   <properties>
    <property name="Passable" value="F"/>
    <property name="Water" type="bool" value="true"/>
   </properties>
  </tile>
  <tile id="480">
   <properties>
    <property name="Passable" value="F"/>
    <property name="Water" type="bool" value="true"/>
   </properties>
  </tile>
  <tile id="481">
   <properties>
    <property name="Passable" value="F"/>
    <property name="Water" type="bool" value="true"/>
   </properties>
  </tile>
  <tile id="521">
   <properties>
    <property name="Diggable" value="T"/>
   </properties>
  </tile>
  <tile id="522">
   <properties>
    <property name="Diggable" value="T"/>
   </properties>
  </tile>
  <tile id="535">
   <properties>
    <property name="Buildable" type="bool" value="true"/>
   </properties>
  </tile>
  <tile id="536">
   <properties>
    <property name="Buildable" type="bool" value="true"/>
   </properties>
  </tile>
  <tile id="537">
   <properties>
    <property name="Buildable" type="bool" value="true"/>
   </properties>
  </tile>
  <tile id="538">
   <properties>
    <property name="Buildable" type="bool" value="true"/>
   </properties>
  </tile>
  <tile id="539">
   <properties>
    <property name="Buildable" type="bool" value="true"/>
   </properties>
  </tile>
  <tile id="540">
   <properties>
    <property name="Buildable" type="bool" value="true"/>
   </properties>
  </tile>
  <tile id="541">
   <properties>
    <property name="Buildable" type="bool" value="true"/>
   </properties>
  </tile>
  <tile id="542">
   <properties>
    <property name="Passable" value="F"/>
    <property name="Water" type="bool" value="true"/>
   </properties>
  </tile>
  <tile id="543">
   <properties>
    <property name="Passable" value="F"/>
    <property name="Water" type="bool" value="true"/>
   </properties>
  </tile>
  <tile id="544">
   <properties>
    <property name="Passable" value="F"/>
    <property name="Water" type="bool" value="true"/>
   </properties>
  </tile>
  <tile id="545">
   <properties>
    <property name="Passable" value="F"/>
    <property name="Water" type="bool" value="true"/>
   </properties>
  </tile>
  <tile id="1163">
   <properties>
    <property name="Passable" value="F"/>
    <property name="Water" type="bool" value="true"/>
   </properties>
  </tile>
  <tile id="1164">
   <properties>
    <property name="Passable" value="F"/>
    <property name="Water" type="bool" value="true"/>
   </properties>
  </tile>
  <tile id="1165">
   <properties>
    <property name="Passable" value="F"/>
    <property name="Water" type="bool" value="true"/>
   </properties>
  </tile>
  <tile id="1166">
   <properties>
    <property name="Passable" value="F"/>
    <property name="Water" type="bool" value="true"/>
   </properties>
  </tile>
  <tile id="1227">
   <properties>
    <property name="Passable" value="F"/>
    <property name="Water" type="bool" value="true"/>
   </properties>
  </tile>
  <tile id="1228">
   <properties>
    <property name="Passable" value="F"/>
    <property name="Water" type="bool" value="true"/>
   </properties>
  </tile>
  <tile id="1229">
   <properties>
    <property name="Passable" value="F"/>
    <property name="Water" type="bool" value="true"/>
   </properties>
  </tile>
  <tile id="1230">
   <properties>
    <property name="Passable" value="F"/>
    <property name="Water" type="bool" value="true"/>
   </properties>
  </tile>
  <tile id="1291">
   <properties>
    <property name="Passable" value="F"/>
    <property name="Water" type="bool" value="true"/>
   </properties>
  </tile>
  <tile id="1292">
   <properties>
    <property name="Passable" value="F"/>
    <property name="Water" type="bool" value="true"/>
   </properties>
  </tile>
  <tile id="1293">
   <properties>
    <property name="Passable" value="F"/>
    <property name="Water" type="bool" value="true"/>
   </properties>
  </tile>
  <tile id="1294">
   <properties>
    <property name="Passable" value="F"/>
    <property name="Water" type="bool" value="true"/>
   </properties>
  </tile>
  <tile id="1355">
   <properties>
    <property name="Passable" value="F"/>
    <property name="Water" type="bool" value="true"/>
   </properties>
  </tile>
  <tile id="1356">
   <properties>
    <property name="Passable" value="F"/>
    <property name="Water" type="bool" value="true"/>
   </properties>
  </tile>
  <tile id="1357">
   <properties>
    <property name="Passable" value="F"/>
    <property name="Water" type="bool" value="true"/>
   </properties>
  </tile>
  <tile id="1358">
   <properties>
    <property name="Passable" value="F"/>
    <property name="Water" type="bool" value="true"/>
   </properties>
  </tile>
  <tile id="1794">
   <properties>
    <property name="Buildable" type="bool" value="true"/>
   </properties>
  </tile>
  <tile id="1857">
   <properties>
    <property name="Buildable" type="bool" value="true"/>
   </properties>
  </tile>
  <tile id="1858">
   <properties>
    <property name="Buildable" type="bool" value="true"/>
   </properties>
  </tile>
  <tile id="1859">
   <properties>
    <property name="Buildable" type="bool" value="true"/>
   </properties>
  </tile>
  <tile id="1922">
   <properties>
    <property name="Buildable" type="bool" value="true"/>
   </properties>
  </tile>
  <tile id="2182">
   <properties>
    <property name="Diggable" value="T"/>
   </properties>
  </tile>
  <tile id="2245">
   <properties>
    <property name="Diggable" value="T"/>
   </properties>
  </tile>
  <tile id="2246">
   <properties>
    <property name="Diggable" value="T"/>
   </properties>
  </tile>
  <tile id="2247">
   <properties>
    <property name="Diggable" value="T"/>
   </properties>
  </tile>
  <tile id="2310">
   <properties>
    <property name="Diggable" value="T"/>
   </properties>
  </tile>
 </tileset>
 <tileset firstgid="4247" name="Paths" tilewidth="16" tileheight="16" tilecount="40" columns="4">
  <image source="Tiles/Tilesets/Paths.png" width="64" height="160"/>
 </tileset>
 <layer id="12" name="Back" width="31" height="20" locked="1">
  <properties>
   <property name="unity:SortingLayer" value="Back"/>
   <property name="unity:SortingOrder" value="200"/>
  </properties>
  <data encoding="csv">
0,0,0,0,0,0,0,0,0,0,0,0,0,0,0,0,0,0,0,0,0,0,0,0,0,0,0,0,0,0,0,
0,0,0,0,0,0,0,0,0,0,0,0,0,0,0,0,0,0,0,0,0,0,0,0,0,0,0,0,0,0,0,
0,0,0,0,0,0,0,0,0,0,0,0,0,0,0,0,0,0,0,0,0,0,0,0,0,0,0,0,0,0,0,
0,0,0,0,0,0,0,0,0,0,0,0,0,0,0,0,0,0,0,0,0,0,0,0,0,0,0,0,0,0,0,
0,0,0,0,0,0,0,0,0,0,0,0,0,0,0,0,0,0,0,0,0,0,0,0,0,0,0,0,0,0,0,
0,0,0,0,0,0,0,0,0,0,0,0,0,0,0,0,0,0,0,0,0,0,0,0,0,0,0,0,0,0,0,
0,0,0,0,0,0,0,0,0,0,0,0,737,737,737,737,737,737,737,737,0,0,0,0,0,0,0,0,0,0,0,
0,0,0,0,0,0,0,0,0,0,0,0,737,737,737,737,737,737,737,737,0,0,0,0,0,0,0,0,0,0,0,
0,0,0,0,0,0,0,0,0,0,0,0,737,737,737,737,737,737,737,737,0,0,0,0,0,0,0,0,0,0,0,
0,0,0,0,0,0,0,0,0,0,0,0,737,737,737,737,737,737,737,737,0,0,0,0,0,0,0,0,0,0,0,
0,0,0,0,0,0,0,0,0,0,0,0,737,737,737,737,737,737,737,737,0,0,0,0,0,0,0,0,0,0,0,
0,0,0,0,0,0,0,0,0,0,0,0,737,737,737,737,737,737,737,737,0,0,0,0,0,0,0,0,0,0,0,
0,0,0,0,0,0,0,0,0,0,0,0,737,737,737,737,737,737,737,737,0,0,0,0,0,0,0,0,0,0,0,
0,0,0,0,0,0,0,0,0,0,0,0,737,737,737,737,737,737,737,737,0,0,0,0,0,0,0,0,0,0,0,
0,0,0,0,0,0,0,0,0,0,0,0,737,737,737,737,737,737,737,737,0,0,0,0,0,0,0,0,0,0,0,
0,0,0,0,0,0,0,0,0,0,0,0,737,737,737,737,737,737,737,737,0,0,0,0,0,0,0,0,0,0,0,
0,0,0,0,0,0,0,0,0,0,0,0,0,0,0,0,0,0,0,0,0,0,0,0,0,0,0,0,0,0,0,
0,0,0,0,0,0,0,0,0,0,0,0,0,0,0,0,0,0,0,0,0,0,0,0,0,0,0,0,0,0,0,
0,0,0,0,0,0,0,0,0,0,0,0,0,0,0,0,0,0,0,0,0,0,0,0,0,0,0,0,0,0,0,
0,0,0,0,0,0,0,0,0,0,0,0,0,0,0,0,0,0,0,0,0,0,0,0,0,0,0,0,0,0,0
</data>
 </layer>
 <objectgroup id="11" name="Back Object" locked="1"/>
 <layer id="16" name="Back2" width="31" height="20" locked="1">
  <properties>
   <property name="unity:SortingLayer" value="Back"/>
  </properties>
  <data encoding="csv">
0,0,0,0,0,0,0,0,0,0,0,0,0,0,0,0,0,0,0,0,0,0,0,0,0,0,0,0,0,0,0,
0,0,0,0,0,0,0,0,0,0,0,0,0,0,0,0,0,0,0,0,0,0,0,0,0,0,0,0,0,0,0,
0,0,0,0,0,0,0,0,0,0,0,0,0,0,0,0,0,0,0,0,0,0,0,0,0,0,0,0,0,0,0,
0,0,0,0,0,0,0,0,0,0,0,0,0,0,0,0,0,0,0,0,0,0,0,0,0,0,0,0,0,0,0,
0,0,0,0,0,0,0,0,0,0,0,0,0,0,0,0,0,0,0,0,0,0,0,0,0,0,0,0,0,0,0,
0,0,0,0,0,0,0,0,0,0,0,0,0,0,0,0,0,0,0,0,0,0,0,0,0,0,0,0,0,0,0,
0,0,0,0,0,0,0,0,0,0,0,0,0,0,0,0,0,0,0,0,0,0,0,0,0,0,0,0,0,0,0,
0,0,0,0,0,0,0,0,0,0,0,0,0,0,0,0,0,0,0,0,0,0,0,0,0,0,0,0,0,0,0,
0,0,0,0,0,0,0,0,0,0,0,0,0,0,0,0,0,0,0,0,0,0,0,0,0,0,0,0,0,0,0,
0,0,0,0,0,0,0,0,0,0,0,0,0,0,0,0,0,0,0,0,0,0,0,0,0,0,0,0,0,0,0,
0,0,0,0,0,0,0,0,0,0,0,0,0,0,0,0,0,0,0,0,0,0,0,0,0,0,0,0,0,0,0,
0,0,0,0,0,0,0,0,0,0,0,0,0,0,0,0,0,0,0,0,0,0,0,0,0,0,0,0,0,0,0,
0,0,0,0,0,0,0,0,0,0,0,0,0,0,0,0,0,0,0,0,0,0,0,0,0,0,0,0,0,0,0,
0,0,0,0,0,0,0,0,0,0,0,0,0,0,0,0,0,0,0,0,0,0,0,0,0,0,0,0,0,0,0,
0,0,0,0,0,0,0,0,0,0,0,0,0,0,0,0,0,0,0,0,0,0,0,0,0,0,0,0,0,0,0,
0,0,0,0,0,0,0,0,0,0,0,0,0,0,0,0,0,0,0,0,0,0,0,0,0,0,0,0,0,0,0,
0,0,0,0,0,0,0,0,0,0,0,0,0,0,0,0,0,0,0,0,0,0,0,0,0,0,0,0,0,0,0,
0,0,0,0,0,0,0,0,0,0,0,0,0,0,0,0,0,0,0,0,0,0,0,0,0,0,0,0,0,0,0,
0,0,0,0,0,0,0,0,0,0,0,0,0,0,0,0,0,0,0,0,0,0,0,0,0,0,0,0,0,0,0,
0,0,0,0,0,0,0,0,0,0,0,0,0,0,0,0,0,0,0,0,0,0,0,0,0,0,0,0,0,0,0
</data>
 </layer>
 <objectgroup id="15" name="Back2 Object" locked="1"/>
 <layer id="10" name="Buildings" width="31" height="20" locked="1">
  <properties>
   <property name="Passable" value="F"/>
   <property name="unity:SortingLayer" value="Buildings"/>
   <property name="unity:SortingOrder" value="400"/>
  </properties>
  <data encoding="csv">
0,0,0,0,0,0,0,0,0,0,0,0,0,0,0,0,0,0,0,0,0,0,0,0,0,0,0,0,0,0,0,
0,0,0,0,0,0,0,0,0,0,0,0,0,0,0,0,0,0,0,0,0,0,0,0,0,0,0,0,0,0,0,
0,0,0,0,0,0,0,0,0,0,0,0,0,0,0,0,0,0,0,0,0,0,0,0,0,0,0,0,0,0,0,
0,0,0,0,0,0,0,0,0,0,0,0,0,0,0,0,0,0,0,0,0,0,0,0,0,0,0,0,0,0,0,
0,0,0,0,0,0,0,0,0,0,0,735,796,796,796,796,796,796,796,796,795,0,0,0,0,0,0,0,0,0,0,
0,0,0,0,0,0,0,0,0,0,0,733,801,801,801,801,801,801,801,801,794,0,0,0,0,0,0,0,0,0,0,
0,0,0,0,0,0,0,0,0,0,0,733,0,0,0,0,0,0,0,0,794,0,0,0,0,0,0,0,0,0,0,
0,0,0,0,0,0,0,0,0,0,0,733,0,0,0,0,0,0,0,0,794,0,0,0,0,0,0,0,0,0,0,
0,0,0,0,0,0,0,0,0,0,0,733,0,0,0,0,0,0,0,0,794,0,0,0,0,0,0,0,0,0,0,
0,0,0,0,0,0,0,0,0,0,0,733,0,0,0,0,0,0,0,0,794,0,0,0,0,0,0,0,0,0,0,
0,0,0,0,0,0,0,0,0,0,0,733,0,0,0,0,0,0,0,0,794,0,0,0,0,0,0,0,0,0,0,
0,0,0,0,0,0,0,0,0,0,0,733,0,0,0,0,0,0,0,0,794,0,0,0,0,0,0,0,0,0,0,
0,0,0,0,0,0,0,0,0,0,0,733,0,0,0,0,0,0,0,0,794,0,0,0,0,0,0,0,0,0,0,
0,0,0,0,0,0,0,0,0,0,0,733,0,0,0,0,0,0,0,0,794,0,0,0,0,0,0,0,0,0,0,
0,0,0,0,0,0,0,0,0,0,0,733,0,0,0,0,0,0,0,0,794,0,0,0,0,0,0,0,0,0,0,
0,0,0,0,0,0,0,0,0,0,0,797,796,796,796,796,796,796,796,796,798,0,0,0,0,0,0,0,0,0,0,
0,0,0,0,0,0,0,0,0,0,0,0,0,0,0,0,0,0,0,0,0,0,0,0,0,0,0,0,0,0,0,
0,0,0,0,0,0,0,0,0,0,0,0,0,0,0,0,0,0,0,0,0,0,0,0,0,0,0,0,0,0,0,
0,0,0,0,0,0,0,0,0,0,0,0,0,0,0,0,0,0,0,0,0,0,0,0,0,0,0,0,0,0,0,
0,0,0,0,0,0,0,0,0,0,0,0,0,0,0,0,0,0,0,0,0,0,0,0,0,0,0,0,0,0,0
</data>
 </layer>
 <objectgroup id="9" name="Buildings Object" locked="1"/>
 <layer id="8" name="Path" width="31" height="20" locked="1">
  <properties>
   <property name="unity:SortingLayer" value="Path"/>
   <property name="unity:SortingOrder" value="500"/>
  </properties>
  <data encoding="csv">
0,0,0,0,0,0,0,0,0,0,0,0,0,0,0,0,0,0,0,0,0,0,0,0,0,0,0,0,0,0,0,
0,0,0,0,0,0,0,0,0,0,0,0,0,0,0,0,0,0,0,0,0,0,0,0,0,0,0,0,0,0,0,
0,0,0,0,0,0,0,0,0,0,0,0,0,0,0,0,0,0,0,0,0,0,0,0,0,0,0,0,0,0,0,
0,0,0,0,0,0,0,0,0,0,0,0,0,0,0,0,0,0,0,0,0,0,0,0,0,0,0,0,0,0,0,
0,0,0,0,0,0,0,0,0,0,0,0,0,0,0,0,0,0,0,0,0,0,0,0,0,0,0,0,0,0,0,
0,0,0,0,0,0,0,0,0,0,0,0,0,0,0,0,0,0,0,0,0,0,0,0,0,0,0,0,0,0,0,
0,0,0,0,0,0,0,0,0,0,0,0,0,0,0,0,0,0,0,0,0,0,0,0,0,0,0,0,0,0,0,
0,0,0,0,0,0,0,0,0,0,0,0,0,0,0,0,0,0,0,0,0,0,0,0,0,0,0,0,0,0,0,
0,0,0,0,0,0,0,0,0,0,0,0,0,0,0,0,0,0,0,0,0,0,0,0,0,0,0,0,0,0,0,
0,0,0,0,0,0,0,0,0,0,0,0,0,0,0,0,0,0,0,0,0,0,0,0,0,0,0,0,0,0,0,
0,0,0,0,0,0,0,0,0,0,0,0,0,0,0,0,0,0,0,0,0,0,0,0,0,0,0,0,0,0,0,
0,0,0,0,0,0,0,0,0,0,0,0,0,0,0,0,0,0,0,0,0,0,0,0,0,0,0,0,0,0,0,
0,0,0,0,0,0,0,0,0,0,0,0,0,0,0,0,0,0,0,0,0,0,0,0,0,0,0,0,0,0,0,
0,0,0,0,0,0,0,0,0,0,0,0,0,0,0,0,0,0,0,0,0,0,0,0,0,0,0,0,0,0,0,
0,0,0,0,0,0,0,0,0,0,0,0,0,0,0,0,0,0,0,0,0,0,0,0,0,0,0,0,0,0,0,
0,0,0,0,0,0,0,0,0,0,0,0,0,0,0,0,0,0,0,0,0,0,0,0,0,0,0,0,0,0,0,
0,0,0,0,0,0,0,0,0,0,0,0,0,0,0,0,0,0,0,0,0,0,0,0,0,0,0,0,0,0,0,
0,0,0,0,0,0,0,0,0,0,0,0,0,0,0,0,0,0,0,0,0,0,0,0,0,0,0,0,0,0,0,
0,0,0,0,0,0,0,0,0,0,0,0,0,0,0,0,0,0,0,0,0,0,0,0,0,0,0,0,0,0,0,
0,0,0,0,0,0,0,0,0,0,0,0,0,0,0,0,0,0,0,0,0,0,0,0,0,0,0,0,0,0,0
</data>
 </layer>
 <objectgroup id="7" name="Path Object" locked="1"/>
 <layer id="6" name="Front" width="31" height="20" locked="1">
  <properties>
   <property name="unity:SortingLayer" value="Front"/>
   <property name="unity:SortingOrder" value="700"/>
  </properties>
  <data encoding="csv">
0,0,0,0,0,0,0,0,0,0,0,0,0,0,0,0,0,0,0,0,0,0,0,0,0,0,0,0,0,0,0,
0,0,0,0,0,0,0,0,0,0,0,0,0,0,0,0,0,0,0,0,0,0,0,0,0,0,0,0,0,0,0,
0,0,0,0,0,0,0,0,0,0,0,0,0,0,0,0,0,0,0,0,0,0,0,0,0,0,0,0,0,0,0,
0,0,0,0,0,0,0,0,0,0,0,0,0,0,0,0,0,0,0,0,0,0,0,0,0,0,0,0,0,0,0,
0,0,0,0,0,0,0,0,0,0,0,735,0,0,0,0,0,0,0,0,987,0,0,0,0,0,0,0,0,0,0,
0,0,0,0,0,0,0,0,0,0,0,925,0,0,0,0,0,0,0,0,986,0,0,0,0,0,0,0,0,0,0,
0,0,0,0,0,0,0,0,0,0,0,925,0,0,0,0,0,0,0,0,986,0,0,0,0,0,0,0,0,0,0,
0,0,0,0,0,0,0,0,0,0,0,925,0,0,0,0,0,0,0,0,986,0,0,0,0,0,0,0,0,0,0,
0,0,0,0,0,0,0,0,0,0,0,925,0,0,0,0,0,0,0,0,986,0,0,0,0,0,0,0,0,0,0,
0,0,0,0,0,0,0,0,0,0,0,925,0,0,0,0,0,0,0,0,986,0,0,0,0,0,0,0,0,0,0,
0,0,0,0,0,0,0,0,0,0,0,925,0,0,0,0,0,0,0,0,986,0,0,0,0,0,0,0,0,0,0,
0,0,0,0,0,0,0,0,0,0,0,925,0,0,0,0,0,0,0,0,986,0,0,0,0,0,0,0,0,0,0,
0,0,0,0,0,0,0,0,0,0,0,925,0,0,0,0,0,0,0,0,986,0,0,0,0,0,0,0,0,0,0,
0,0,0,0,0,0,0,0,0,0,0,925,0,0,0,0,0,0,0,0,986,0,0,0,0,0,0,0,0,0,0,
0,0,0,0,0,0,0,0,0,0,0,925,0,0,0,0,0,0,0,0,986,0,0,0,0,0,0,0,0,0,0,
0,0,0,0,0,0,0,0,0,0,0,797,796,796,796,796,796,796,796,796,798,0,0,0,0,0,0,0,0,0,0,
0,0,0,0,0,0,0,0,0,0,0,0,0,0,0,0,0,0,0,0,0,0,0,0,0,0,0,0,0,0,0,
0,0,0,0,0,0,0,0,0,0,0,0,0,0,0,0,0,0,0,0,0,0,0,0,0,0,0,0,0,0,0,
0,0,0,0,0,0,0,0,0,0,0,0,0,0,0,0,0,0,0,0,0,0,0,0,0,0,0,0,0,0,0,
0,0,0,0,0,0,0,0,0,0,0,0,0,0,0,0,0,0,0,0,0,0,0,0,0,0,0,0,0,0,0
</data>
 </layer>
 <objectgroup id="5" name="Front Object" locked="1"/>
 <layer id="4" name="Always Front" width="31" height="20" locked="1">
  <properties>
   <property name="unity:SortingLayer" value="AlwaysFront"/>
   <property name="unity:SortingOrder" value="800"/>
  </properties>
  <data encoding="csv">
0,0,0,0,0,0,0,0,0,0,0,0,0,0,0,0,0,0,0,0,0,0,0,0,0,0,0,0,0,0,0,
0,0,0,0,0,0,0,0,0,0,0,0,0,0,0,0,0,0,0,0,0,0,0,0,0,0,0,0,0,0,0,
0,0,0,0,0,0,0,0,0,0,0,0,0,0,0,0,0,0,0,0,0,0,0,0,0,0,0,0,0,0,0,
0,0,0,0,0,0,0,0,0,0,0,0,0,0,0,0,0,0,0,0,0,0,0,0,0,0,0,0,0,0,0,
0,0,0,0,0,0,0,0,0,0,0,0,0,0,0,0,0,0,0,0,0,0,0,0,0,0,0,0,0,0,0,
0,0,0,0,0,0,0,0,0,0,0,0,0,0,0,0,0,0,0,0,0,0,0,0,0,0,0,0,0,0,0,
0,0,0,0,0,0,0,0,0,0,0,0,0,0,0,0,0,0,0,0,0,0,0,0,0,0,0,0,0,0,0,
0,0,0,0,0,0,0,0,0,0,0,0,0,0,0,0,0,0,0,0,0,0,0,0,0,0,0,0,0,0,0,
0,0,0,0,0,0,0,0,0,0,0,0,0,0,0,0,0,0,0,0,0,0,0,0,0,0,0,0,0,0,0,
0,0,0,0,0,0,0,0,0,0,0,0,0,0,0,0,0,0,0,0,0,0,0,0,0,0,0,0,0,0,0,
0,0,0,0,0,0,0,0,0,0,0,0,0,0,0,0,0,0,0,0,0,0,0,0,0,0,0,0,0,0,0,
0,0,0,0,0,0,0,0,0,0,0,0,0,0,0,0,0,0,0,0,0,0,0,0,0,0,0,0,0,0,0,
0,0,0,0,0,0,0,0,0,0,0,0,0,0,0,0,0,0,0,0,0,0,0,0,0,0,0,0,0,0,0,
0,0,0,0,0,0,0,0,0,0,0,0,0,0,0,0,0,0,0,0,0,0,0,0,0,0,0,0,0,0,0,
0,0,0,0,0,0,0,0,0,0,0,0,0,0,0,0,0,0,0,0,0,0,0,0,0,0,0,0,0,0,0,
0,0,0,0,0,0,0,0,0,0,0,0,0,0,0,0,0,0,0,0,0,0,0,0,0,0,0,0,0,0,0,
0,0,0,0,0,0,0,0,0,0,0,0,0,0,0,0,0,0,0,0,0,0,0,0,0,0,0,0,0,0,0,
0,0,0,0,0,0,0,0,0,0,0,0,0,0,0,0,0,0,0,0,0,0,0,0,0,0,0,0,0,0,0,
0,0,0,0,0,0,0,0,0,0,0,0,0,0,0,0,0,0,0,0,0,0,0,0,0,0,0,0,0,0,0,
0,0,0,0,0,0,0,0,0,0,0,0,0,0,0,0,0,0,0,0,0,0,0,0,0,0,0,0,0,0,0
</data>
 </layer>
 <objectgroup id="3" name="Always Front Object" locked="1"/>
 <layer id="14" name="Always Front2" width="31" height="20" visible="0" locked="1">
  <properties>
   <property name="unity:SortingLayer" value="AlwaysFront"/>
  </properties>
  <data encoding="csv">
0,0,0,0,0,0,0,0,0,0,0,0,0,0,0,0,0,0,0,0,0,0,0,0,0,0,0,0,0,0,0,
0,0,0,0,0,0,0,0,0,0,0,0,0,0,0,0,0,0,0,0,0,0,0,0,0,0,0,0,0,0,0,
0,0,0,0,0,0,0,0,0,0,0,0,0,0,0,0,0,0,0,0,0,0,0,0,0,0,0,0,0,0,0,
0,0,0,0,0,0,0,0,0,0,0,0,0,0,0,0,0,0,0,0,0,0,0,0,0,0,0,0,0,0,0,
0,0,0,0,0,0,0,0,0,0,0,0,0,0,0,0,0,0,0,0,0,0,0,0,0,0,0,0,0,0,0,
0,0,0,0,0,0,0,0,0,0,0,0,0,0,0,0,0,0,0,0,0,0,0,0,0,0,0,0,0,0,0,
0,0,0,0,0,0,0,0,0,0,0,0,0,0,0,0,0,0,0,0,0,0,0,0,0,0,0,0,0,0,0,
0,0,0,0,0,0,0,0,0,0,0,0,0,0,0,0,0,0,0,0,0,0,0,0,0,0,0,0,0,0,0,
0,0,0,0,0,0,0,0,0,0,0,0,0,0,0,0,0,0,0,0,0,0,0,0,0,0,0,0,0,0,0,
0,0,0,0,0,0,0,0,0,0,0,0,0,0,0,0,0,0,0,0,0,0,0,0,0,0,0,0,0,0,0,
0,0,0,0,0,0,0,0,0,0,0,0,0,0,0,0,0,0,0,0,0,0,0,0,0,0,0,0,0,0,0,
0,0,0,0,0,0,0,0,0,0,0,0,0,0,0,0,0,0,0,0,0,0,0,0,0,0,0,0,0,0,0,
0,0,0,0,0,0,0,0,0,0,0,0,0,0,0,0,0,0,0,0,0,0,0,0,0,0,0,0,0,0,0,
0,0,0,0,0,0,0,0,0,0,0,0,0,0,0,0,0,0,0,0,0,0,0,0,0,0,0,0,0,0,0,
0,0,0,0,0,0,0,0,0,0,0,0,0,0,0,0,0,0,0,0,0,0,0,0,0,0,0,0,0,0,0,
0,0,0,0,0,0,0,0,0,0,0,0,0,0,0,0,0,0,0,0,0,0,0,0,0,0,0,0,0,0,0,
0,0,0,0,0,0,0,0,0,0,0,0,0,0,0,0,0,0,0,0,0,0,0,0,0,0,0,0,0,0,0,
0,0,0,0,0,0,0,0,0,0,0,0,0,0,0,0,0,0,0,0,0,0,0,0,0,0,0,0,0,0,0,
0,0,0,0,0,0,0,0,0,0,0,0,0,0,0,0,0,0,0,0,0,0,0,0,0,0,0,0,0,0,0,
0,0,0,0,0,0,0,0,0,0,0,0,0,0,0,0,0,0,0,0,0,0,0,0,0,0,0,0,0,0,0
</data>
 </layer>
 <objectgroup id="13" name="Always Front2 Object" visible="0" locked="1"/>
</map>
